icons/war.svg

<svg width="48" height="48" viewBox="0 0 48 48" fill="none" xmlns="http://www.w3.org/2000/svg">
<path fill-rule="evenodd" clip-rule="evenodd" d="M9.00748 23.9997C7.90285 23.9998 6.98556 23.0995 7.13608 22.0052C8.06968 15.2181 13.6973 10 20.5001 10C25.497 10 29.8599 12.8154 32.1941 17H43C43.5523 17 44 17.4477 44 18C44 18.5523 43.5523 19 43 19H33.1137C33.4662 19.9559 33.7207 20.9621 33.8641 22.0054C34.0146 23.0997 33.0967 23.9999 31.9922 23.9999C26.8628 24.0001 23.8413 23.9999 20.9911 23.9998H20.9794C17.728 23.9996 14.696 23.9994 9.00748 23.9997ZM20.9438 21.9998C17.7346 21.9996 14.729 21.9994 9.15885 21.9997C10.0782 16.2724 14.8559 12 20.5001 12C26.1444 12 30.9222 16.2725 31.8414 22C26.807 22.0001 23.8173 21.9999 20.9963 21.9998H20.9438Z" fill="black"/>
<path fill-rule="evenodd" clip-rule="evenodd" d="M18 32C18 33.6569 16.6569 35 15 35C13.3431 35 12 33.6569 12 32C12 30.3432 13.3431 29 15 29C16.6569 29 18 30.3432 18 32ZM16 32C16 32.5523 15.5523 33 15 33C14.4477 33 14 32.5523 14 32C14 31.4477 14.4477 31 15 31C15.5523 31 16 31.4477 16 32Z" fill="black"/>
<path fill-rule="evenodd" clip-rule="evenodd" d="M24 35C25.6569 35 27 33.6569 27 32C27 30.3432 25.6569 29 24 29C22.3431 29 21 30.3432 21 32C21 33.6569 22.3431 35 24 35ZM24 33C24.5523 33 25 32.5523 25 32C25 31.4477 24.5523 31 24 31C23.4477 31 23 31.4477 23 32C23 32.5523 23.4477 33 24 33Z" fill="black"/>
<path fill-rule="evenodd" clip-rule="evenodd" d="M36 32C36 33.6569 34.6569 35 33 35C31.3431 35 30 33.6569 30 32C30 30.3432 31.3431 29 33 29C34.6569 29 36 30.3432 36 32ZM34 32C34 32.5523 33.5523 33 33 33C32.4477 33 32 32.5523 32 32C32 31.4477 32.4477 31 33 31C33.5523 31 34 31.4477 34 32Z" fill="black"/>
<path fill-rule="evenodd" clip-rule="evenodd" d="M7.18715 26C5.0134 26 3.47847 28.0061 4.16587 29.9487L5.56314 33.8974C6.4301 36.3474 8.86411 38 11.6057 38H36.3943C39.1359 38 41.5699 36.3474 42.4369 33.8974L43.8341 29.9487C44.5215 28.0061 42.9866 26 40.8128 26H7.18715ZM41.808 28.4612C41.6115 28.2044 41.2681 28 40.8128 28H7.18715C6.73189 28 6.38849 28.2044 6.19197 28.4612C6.00003 28.7121 5.95081 28.9975 6.05131 29.2815L7.44858 33.2302C8.01258 34.8241 9.64899 36 11.6057 36H36.3943C38.351 36 39.9874 34.8241 40.5514 33.2302L41.9487 29.2815C42.0492 28.9975 42 28.7121 41.808 28.4612Z" fill="black"/>
</svg>

<svg
  xmlns="http://www.w3.org/2000/svg"
  width="24"
  height="24"
  viewBox="0 0 24 24"
  fill="none"
  stroke="currentColor"
  stroke-width="2"
  stroke-linecap="round"
  stroke-linejoin="round"
>
  <path
    fill-rule="evenodd"
    d="M9.007 24c-1.104 0-2.021-.9-1.87-1.995C8.07 15.218 13.696 10 20.5 10c4.997 0 9.36 2.815 11.694 7H43a1 1 0 1 1 0 2h-9.886c.352.956.607 1.962.75 3.005.15 1.095-.767 1.995-1.872 1.995H9.007m11.937-2H9.159c.92-5.728 5.697-10 11.341-10s10.422 4.273 11.341 10H20.944"
    clip-rule="evenodd"
  />
  <path
    fill-rule="evenodd"
    d="M18 32a3 3 0 1 1-6 0 3 3 0 0 1 6 0m-2 0a1 1 0 1 1-2 0 1 1 0 0 1 2 0"
    clip-rule="evenodd"
  />
  <path
    fill-rule="evenodd"
    d="M24 35a3 3 0 1 0 0-6 3 3 0 0 0 0 6m0-2a1 1 0 1 0 0-2 1 1 0 0 0 0 2"
    clip-rule="evenodd"
  />
  <path
    fill-rule="evenodd"
    d="M36 32a3 3 0 1 1-6 0 3 3 0 0 1 6 0m-2 0a1 1 0 1 1-2 0 1 1 0 0 1 2 0"
    clip-rule="evenodd"
  />
  <path
    fill-rule="evenodd"
    d="M7.187 26c-2.174 0-3.709 2.006-3.021 3.949l1.397 3.948C6.43 36.347 8.864 38 11.606 38h24.788c2.742 0 5.176-1.653 6.043-4.103l1.397-3.948c.688-1.943-.847-3.949-3.021-3.949zm34.621 2.461c-.197-.257-.54-.461-.995-.461H7.187c-.455 0-.799.204-.995.461a.84.84 0 0 0-.14.82l1.397 3.95C8.013 34.823 9.649 36 11.606 36h24.788c1.957 0 3.593-1.176 4.157-2.77l1.398-3.948a.84.84 0 0 0-.141-.82"
    clip-rule="evenodd"
  />
</svg>
